;Fusion 360 CAM 2.0.16753
; Posts processor: MPCNC.cps
; Gcode generated: Monday, August 7, 2023 9:42:51 AM GMT
; Document: Voron 2.4 Original Aug-2023 v5
; Setup: Setup1
;When using Fusion 360 for Personal Use, the feedrate of
;rapid moves is reduced to match the feedrate of cutting
;moves, which can increase machining time. Unrestricted rapid
;moves are available with a Fusion 360 Subscription.
; 
; Ranges Table:
;   X: Min=63.315 Max=94.64 Size=31.325
;   Y: Min=17.852 Max=49.202 Size=31.35
;   Z: Min=-3.1 Max=15 Size=18.1
; 
; Tools Table:
;  T1 D=3.175 CR=0 - ZMIN=-3.1 - flat end mill 
; 
; Feedrate and Scaling Properties:
;   Feed: Travel speed X/Y = 25
;   Feed: Travel Speed Z = 10
;   Feed: Enforce Feedrate = true
;   Feed: Scale Feedrate = false
;   Feed: Max XY Cut Speed = 25
;   Feed: Max Z Cut Speed = 10
;   Feed: Max Toolpath Speed = 1700
; 
; G1->G0 Mapping Properties:
;   Map: First G1 -> G0 Rapid = false
;   Map: G1s -> G0 Rapids = false
;   Map: SafeZ Mode = Retract : default = 15
;   Map: Allow Rapid Z = false
; 
; *** START begin ***
;   Set Absolute Positioning
;   Units = mm
G90
G21
; *** START end ***
; 
; *** SECTION begin ***
;   X Min: 63.315 - X Max: 94.64
;   Y Min: 17.852 - Y Max: 49.202
;   Z Min: -3.1 - Z Max: 15
; 2D Contour2 - Milling - Tool: 1 -  flat end mill
M453 P2 I0 R30000 F200
; COMMAND_START_SPINDLE
; COMMAND_SPINDLE_CLOCKWISE
; >>> Spindle Speed 10000
M3 S10000
; COMMAND_COOLANT_ON
M117  2D Contour2
; MOVEMENT_CUTTING
G1 X94.539 Y49.165 Z15 F25
G1 Z5 F25
; MOVEMENT_PLUNGE
G1 Z2.5 F10
; MOVEMENT_RAMP
G1 X94.504 Y49.175 Z2.499 F25
G1 X94.469 Y49.177 Z2.497 F25
G1 X94.433 Y49.171 Z2.496 F25
G1 X94.4 Y49.157 Z2.495 F25
G1 X94.37 Y49.137 Z2.494 F25
G1 X94.346 Y49.11 Z2.492 F25
G1 X94.328 Y49.079 Z2.491 F25
G1 X94.318 Y49.044 Z2.49 F25
G1 X94.315 Y49.009 Z2.489 F25
G1 X94.32 Y48.973 Z2.487 F25
G1 X94.333 Y48.939 Z2.486 F25
G1 X94.353 Y48.91 Z2.485 F25
G1 X94.38 Y48.885 Z2.484 F25
G1 X94.411 Y48.867 Z2.482 F25
G1 X94.445 Y48.855 Z2.481 F25
G1 X94.481 Y48.852 Z2.48 F25
G1 X94.516 Y48.857 Z2.479 F25
G1 X94.55 Y48.869 Z2.477 F25
G1 X94.58 Y48.889 Z2.476 F25
G1 X94.606 Y48.915 Z2.475 F25
G1 X94.624 Y48.945 Z2.474 F25
G1 X94.636 Y48.979 Z2.472 F25
G1 X94.64 Y49.015 Z2.471 F25
G1 X94.636 Y49.051 Z2.47 F25
G1 X94.624 Y49.085 Z2.469 F25
G1 X94.605 Y49.116 Z2.467 F25
G1 X94.58 Y49.141 Z2.466 F25
G1 X94.549 Y49.16 Z2.465 F25
G1 X94.515 Y49.173 Z2.463 F25
G1 X94.48 Y49.177 Z2.462 F25
G1 X94.444 Y49.174 Z2.461 F25
G1 X94.41 Y49.162 Z2.46 F25
G1 X94.379 Y49.144 Z2.458 F25
G1 X94.353 Y49.119 Z2.457 F25
G1 X94.333 Y49.089 Z2.456 F25
G1 X94.32 Y49.055 Z2.455 F25
G1 X94.315 Y49.02 Z2.453 F25
G1 X94.318 Y48.984 Z2.452 F25
G1 X94.329 Y48.949 Z2.451 F25
G1 X94.347 Y48.918 Z2.45 F25
G1 X94.371 Y48.892 Z2.448 F25
G1 X94.401 Y48.871 Z2.447 F25
G1 X94.434 Y48.858 Z2.446 F25
G1 X94.47 Y48.852 Z2.445 F25
G1 X94.506 Y48.855 Z2.443 F25
G1 X94.54 Y48.865 Z2.442 F25
G1 X94.572 Y48.882 Z2.441 F25
G1 X94.598 Y48.906 Z2.44 F25
G1 X94.619 Y48.936 Z2.438 F25
G1 X94.633 Y48.969 Z2.437 F25
G1 X94.64 Y49.004 Z2.436 F25
G1 X94.638 Y49.04 Z2.435 F25
G1 X94.628 Y49.075 Z2.433 F25
G1 X94.611 Y49.107 Z2.432 F25
G1 X94.588 Y49.134 Z2.431 F25
G1 X94.559 Y49.155 Z2.429 F25
G1 X94.526 Y49.17 Z2.428 F25
G1 X94.491 Y49.177 Z2.427 F25
G1 X94.455 Y49.176 Z2.426 F25
G1 X94.42 Y49.167 Z2.424 F25
G1 X94.388 Y49.15 Z2.423 F25
G1 X94.36 Y49.127 Z2.422 F25
G1 X94.338 Y49.099 Z2.421 F25
G1 X94.323 Y49.066 Z2.419 F25
G1 X94.316 Y49.031 Z2.418 F25
G1 Y48.995 Z2.417 F25
G1 X94.324 Y48.96 Z2.416 F25
G1 X94.34 Y48.927 Z2.414 F25
G1 X94.363 Y48.899 Z2.413 F25
G1 X94.391 Y48.877 Z2.412 F25
G1 X94.424 Y48.861 Z2.411 F25
G1 X94.459 Y48.853 Z2.409 F25
G1 X94.495 Z2.408 F25
G1 X94.53 Y48.861 Z2.407 F25
G1 X94.562 Y48.876 Z2.406 F25
G1 X94.591 Y48.898 Z2.404 F25
G1 X94.614 Y48.926 Z2.403 F25
G1 X94.63 Y48.958 Z2.402 F25
G1 X94.638 Y48.993 Z2.4 F25
G1 X94.639 Y49.029 Z2.399 F25
G1 X94.632 Y49.064 Z2.398 F25
G1 X94.617 Y49.097 Z2.397 F25
G1 X94.596 Y49.126 Z2.395 F25
G1 X94.568 Y49.149 Z2.394 F25
G1 X94.536 Y49.166 Z2.393 F25
G1 X94.502 Y49.175 Z2.392 F25
G1 X94.466 Y49.177 Z2.39 F25
G1 X94.43 Y49.17 Z2.389 F25
G1 X94.397 Y49.156 Z2.388 F25
G1 X94.368 Y49.135 Z2.387 F25
G1 X94.344 Y49.108 Z2.385 F25
G1 X94.327 Y49.076 Z2.384 F25
G1 X94.317 Y49.042 Z2.383 F25
G1 X94.315 Y49.006 Z2.382 F25
G1 X94.321 Y48.97 Z2.38 F25
G1 X94.335 Y48.937 Z2.379 F25
G1 X94.355 Y48.907 Z2.378 F25
G1 X94.382 Y48.883 Z2.377 F25
G1 X94.413 Y48.865 Z2.375 F25
G1 X94.448 Y48.855 Z2.374 F25
G1 X94.484 Y48.852 Z2.373 F25
G1 X94.519 Y48.858 Z2.372 F25
G1 X94.553 Y48.871 Z2.37 F25
G1 X94.583 Y48.891 Z2.369 F25
G1 X94.607 Y48.917 Z2.368 F25
G1 X94.626 Y48.948 Z2.366 F25
G1 X94.637 Y48.982 Z2.365 F25
G1 X94.64 Y49.018 Z2.364 F25
G1 X94.635 Y49.054 Z2.363 F25
G1 X94.623 Y49.088 Z2.361 F25
G1 X94.603 Y49.118 Z2.36 F25
G1 X94.577 Y49.143 Z2.359 F25
G1 X94.547 Y49.162 Z2.358 F25
G1 X94.513 Y49.173 Z2.356 F25
G1 X94.513 Y18.173 Z-3.099 F25
G1 X94.477 Y18.177 Z-3.1 F25
; MOVEMENT_FINISH_CUTTING
G3 Y17.852 J-0.163 F25
G3 Y18.177 J0.163 F25
; MOVEMENT_CUTTING
G1 Z15 F25
; *** SECTION end ***
;
; *** STOP begin ***
M400
; COMMAND_COOLANT_OFF
; COMMAND_STOP_SPINDLE
M5
M117 Job end
; *** STOP end ***
